src/pos-icons/text-box-remove-outline.svg

<svg height="24" viewBox="0 0 24 24" width="24" xmlns="http://www.w3.org/2000/svg"><path d="m14.46 15.88 1.42-1.42 2.12 2.13 2.12-2.13 1.42 1.42-2.13 2.12 2.13 2.12-1.42 1.42-2.12-2.13-2.12 2.13-1.42-1.42 2.13-2.12zm-9.46-12.88h14c1.11 0 2 .89 2 2v7.8c-.61-.35-1.28-.6-2-.72v-7.08h-14v14h7.08c.12.72.37 1.39.72 2h-7.8c-1.11 0-2-.89-2-2v-14c0-1.11.89-2 2-2m2 4h10v2h-10zm0 4h10v1.08c-.85.14-1.63.46-2.32.92h-7.68zm0 4h5v2h-5z"/></svg>

<?xml version="1.0" encoding="UTF-8"?><!DOCTYPE svg PUBLIC "-//W3C//DTD SVG 1.1//EN" "http://www.w3.org/Graphics/SVG/1.1/DTD/svg11.dtd"><svg xmlns="http://www.w3.org/2000/svg" xmlns:xlink="http://www.w3.org/1999/xlink" version="1.1" id="mdi-text-box-remove-outline" width="24" height="24" viewBox="0 0 24 24"><path d="M14.46,15.88L15.88,14.46L18,16.59L20.12,14.46L21.54,15.88L19.41,18L21.54,20.12L20.12,21.54L18,19.41L15.88,21.54L14.46,20.12L16.59,18L14.46,15.88M5,3H19C20.11,3 21,3.89 21,5V12.8C20.39,12.45 19.72,12.2 19,12.08V5H5V19H12.08C12.2,19.72 12.45,20.39 12.8,21H5C3.89,21 3,20.11 3,19V5C3,3.89 3.89,3 5,3M7,7H17V9H7V7M7,11H17V12.08C16.15,12.22 15.37,12.54 14.68,13H7V11M7,15H12V17H7V15Z" /></svg>
